icons/cloud-windy-fill.svg

<svg xmlns="http://www.w3.org/2000/svg" width="24" height="24" fill="none"><g clip-path="url(#a)"><g><path fill="#121212" d="M14 18V14.007H2.07402C1.33733 12.1273 1.33865 10.0384 2.07772 8.15956C2.81679 6.28069 4.23895 4.75076 6.05892 3.87665C7.87889 3.00254 9.96206 2.8489 11.8906 3.44655C13.8191 4.0442 15.4503 5.34894 16.457 7.09905C17.2093 6.95435 17.9836 6.96841 18.7301 7.14033C19.4767 7.31224 20.1791 7.63823 20.7923 8.09739C21.4055 8.55654 21.9161 9.13875 22.2913 9.8067C22.6664 10.4746 22.8979 11.2136 22.9709 11.9762C23.0438 12.7388 22.9567 13.5083 22.715 14.2352C22.4733 14.9622 22.0824 15.6306 21.5673 16.1978C21.0523 16.7649 20.4244 17.2181 19.724 17.5285C19.0236 17.8389 18.2661 17.9995 17.5 18H14.001H14ZM6.00002 20H16V22H6.00002V20ZM2.00002 16H12V18H2.00002V16Z"/></g></g><defs><clipPath id="a"><rect width="24" height="24" fill="white"/></clipPath></defs></svg>

<svg width="24" height="24" fill="none" xmlns="http://www.w3.org/2000/svg"><g clip-path="url(#a)"><path d="M14 18v-3.993H2.074a8 8 0 0 1 14.383-6.908A5.5 5.5 0 1 1 17.5 18H14Zm-8 2h10v2H6v-2Zm-4-4h10v2H2v-2Z" /></g><defs><clipPath id="a"><path fill="#fff" d="M0 0h24v24H0z"/></clipPath></defs></svg>
